resources/haticons/SVG/mic.svg

<!-- Generated by IcoMoon.io -->
<svg version="1.1" xmlns="http://www.w3.org/2000/svg" width="24" height="24" viewBox="0 0 24 24">
<title>mic</title>
<path d="M11.25 16.5c2.071 0 3.75-1.679 3.75-3.75v-9c0-2.071-1.679-3.75-3.75-3.75s-3.75 1.679-3.75 3.75v9c0 2.071 1.679 3.75 3.75 3.75zM16.5 10.5v2.25c0 2.899-2.351 5.25-5.25 5.25s-5.25-2.351-5.25-5.25v-2.25h-1.5v2.25c0 3.474 2.625 6.335 6 6.708v3.042h-3v1.5h7.5v-1.5h-3v-3.042c3.375-0.373 6-3.234 6-6.708v-2.25h-1.5z"></path>
</svg>

<svg xmlns="http://www.w3.org/2000/svg" width="24" height="24"><path d="M11.25 16.5A3.75 3.75 0 0 0 15 12.75v-9a3.75 3.75 0 0 0-7.5 0v9a3.75 3.75 0 0 0 3.75 3.75zm5.25-6v2.25a5.25 5.25 0 0 1-10.5 0V10.5H4.5v2.25a6.75 6.75 0 0 0 6 6.708V22.5h-3V24H15v-1.5h-3v-3.042a6.75 6.75 0 0 0 6-6.708V10.5h-1.5z"/></svg>
